; generated by PrusaSlicer 2.3.3+linux-x64 on 2021-10-15 at 22:26:38 UTC


;
;

;
;
; 

; external perimeters extrusion width = 0.40mm
; perimeters extrusion width = 0.40mm
; infill extrusion width = 0.45mm
; solid infill extrusion width = 0.45mm
; top infill extrusion width = 0.40mm
; first layer extrusion width = 0.42mm

M73 P0 R146
M201 X1250 Y1250 Z400 E5000 ; sets maximum accelerations, mm/sec^2
M203 X180 Y180 Z12 E80 ; sets maximum feedrates, mm/sec
M204 P1250 R1250 T1250 ; sets acceleration (P, T) and retract acceleration (R), mm/sec^2
M205 X8.00 Y8.00 Z2.00 E10.00 ; sets the jerk limits, mm/sec
M205 S0 T0 ; sets the minimum extruding and travel feed rate, mm/sec
M107
;TYPE:Custom
G90 ; use absolute coordinates
M83 ; extruder relative mode
M104 S170 ; set extruder temp for bed leveling
M140 S105 ; set bed temp
M109 R170 ; wait for bed leveling temp
M190 S105 ; wait for bed temp
G28 ; home all without mesh bed level
G29 ; mesh bed leveling 
M104 S215 ; set extruder temp
G92 E0.0
G1 Y-2.0 X179 F2400
G1 Z3 F720
M109 S215 ; wait for extruder temp

; intro line
G1 X170 F1000
G1 Z0.2 F720
G1 X110.0 E8.0 F900
G1 X40.0 E10.0 F700
G92 E0.0

M221 S95 ; set flow
G21 ; set units to millimeters
G90 ; use absolute coordinates
M83 ; use relative distances for extrusion
M900 K0.2 ; Filament gcode LA 1.5
; ; Filament gcode LA 1.0
;LAYER_CHANGE
;Z:0.2
;HEIGHT:0.2
;BEFORE_LAYER_CHANGE
G92 E0.0
;0.2


G1 E-3.20000 F4200.000
G1 Z0.200 F7200.000
;AFTER_LAYER_CHANGE
;0.2
G1 Z0.400
G1 X41.031 Y31.215
G1 Z0.200
G1 E3.20000 F2400.000
M204 S800
;TYPE:Skirt
;WIDTH:0.42
G1 F1200.000
G1 X41.409 Y30.527 E0.02461
G1 X41.781 Y30.151 E0.01657
G1 X42.229 Y29.865 E0.01668
G1 X42.727 Y29.687 E0.01657
G1 X43.251 Y29.623 E0.01657
G1 X136.729 Y29.623 E2.93093
G1 X137.631 Y29.802 E0.02884
G1 X138.395 Y30.308 E0.02872
G1 X138.910 Y31.065 E0.02872
G1 X139.102 Y31.961 E0.02872
G1 X139.102 Y148.011 E3.63869
G1 X138.969 Y148.785 E0.02461
G1 X138.591 Y149.473 E0.02461
G1 X138.216 Y149.851 E0.01668
G1 X137.767 Y150.136 E0.01668
G1 X137.262 Y150.316 E0.01680
G1 X136.734 Y150.377 E0.01668
G1 X43.264 Y150.377 E2.93069
M73 P0 R145
G1 X42.490 Y150.244 E0.02461
G1 X41.802 Y149.866 E0.02461
G1 X41.424 Y149.491 E0.01668
G1 X41.139 Y149.042 E0.01668
G1 X40.959 Y148.537 E0.01680
G1 X40.898 Y148.009 E0.01668
G1 X40.898 Y31.989 E3.63773
G1 X41.021 Y31.274 E0.02273
M204 S1250
; printing object DaviCaseTampa.stl id:0 copy 0
G1 E-2.24000 F4200.000
;WIPE_START
G1 F5760.000
G1 X41.409 Y30.527 E-0.58313
G1 X41.743 Y30.190 E-0.32887
;WIPE_END
G1 E-0.04800 F4200.000
G1 Z0.400 F7200.000
G1 X44.488 Y33.213
G1 Z0.200
G1 E3.20000 F2400.000
M204 S800
;TYPE:Perimeter
G1 F1200.000
G1 X135.512 Y33.213 E2.85400
G1 X135.512 Y146.787 E3.56104
G1 X44.488 Y146.787 E2.85400
G1 X44.488 Y33.273 E3.55916
M204 S1250
G1 X44.865 Y33.590 F7200.000
M204 S800
;TYPE:External perimeter
G1 F1200.000
G1 X135.135 Y33.590 E2.83035
G1 X135.135 Y146.410 E3.53739
G1 X44.865 Y146.410 E2.83035
G1 X44.865 Y33.650 E3.53551
M204 S1250
G1 X44.776 Y33.200 F7200.000
G1 X44.062 Y32.787
M204 S800
;TYPE:Perimeter
G1 F1200.000
G1 X135.938 Y32.787 E2.88070
G1 X135.938 Y147.213 E3.58774
M73 P1 R144
G1 X44.062 Y147.213 E2.88070
G1 X44.062 Y32.847 E3.58586
M204 S1250
G1 X43.685 Y32.410 F7200.000
M204 S800
;TYPE:External perimeter
G1 F1200.000
G1 X136.315 Y32.410 E2.90435
G1 X136.315 Y147.590 E3.61139
G1 X43.685 Y147.590 E2.90435
G1 X43.685 Y32.470 E3.60951
M204 S1250
G1 X44.067 Y32.527 F7200.000
; stop printing object DaviCaseTampa.stl id:0 copy 0
M106 S84.15
;LAYER_CHANGE
;Z:0.36
;HEIGHT:0.16
;BEFORE_LAYER_CHANGE
G92 E0.0
;0.36


G1 E-2.24000 F4200.000
;WIPE_START
G1 F5760.000
G1 X45.002 Y32.469 E-0.91200
;WIPE_END
G1 E-0.04800 F4200.000
G1 Z0.400 F7200.000
;AFTER_LAYER_CHANGE
;0.36
M104 S225 ; set temperature
G1 X41.031 Y31.215
G1 Z0.360
G1 E3.20000 F2400.000
;TYPE:Skirt
G1 X41.409 Y30.527 E0.02014
G1 X41.781 Y30.151 E0.01355
G1 X42.229 Y29.865 E0.01365
G1 X42.727 Y29.687 E0.01355
G1 X43.251 Y29.623 E0.01355
G1 X136.729 Y29.623 E2.39812
G1 X137.631 Y29.802 E0.02360
G1 X138.395 Y30.308 E0.02350
G1 X138.910 Y31.065 E0.02350
G1 X139.102 Y31.961 E0.02350
G1 X139.102 Y148.011 E2.97721
G1 X138.969 Y148.785 E0.02014
G1 X138.591 Y149.473 E0.02014
G1 X138.216 Y149.851 E0.01365
G1 X137.767 Y150.136 E0.01365
G1 X137.262 Y150.316 E0.01375
G1 X136.734 Y150.377 E0.01365
G1 X43.264 Y150.377 E2.39792
G1 X42.490 Y150.244 E0.02014
G1 X41.802 Y149.866 E0.02014
G1 X41.424 Y149.491 E0.01365
G1 X41.139 Y149.042 E0.01365
G1 X40.959 Y148.537 E0.01375
G1 X40.898 Y148.009 E0.01365
G1 X40.898 Y31.989 E2.97643
G1 X41.021 Y31.274 E0.01860
; printing object DaviCaseTampa.stl id:0 copy 0
G1 E-2.24000 F4200.000
;WIPE_START
G1 F5760.000
G1 X41.409 Y30.527 E-0.58313
G1 X41.743 Y30.190 E-0.32887
;WIPE_END
G1 E-0.04800 F4200.000
G1 Z0.560 F7200.000
G1 X44.344 Y33.069
G1 Z0.360
G1 E3.20000 F2400.000
M204 S300
;TYPE:Perimeter
;WIDTH:0.4
G1 F2100.000
G1 X135.656 Y33.069 E2.22109
G1 X135.656 Y146.931 E2.76960
G1 X44.344 Y146.931 E2.22109
G1 X44.344 Y33.129 E2.76814
M204 S1250
G1 X44.709 Y33.434 F7200.000
M204 S300
G1 F2100.000
G1 X135.291 Y33.434 E2.20330
G1 X135.291 Y146.566 E2.75181
M73 P1 R143
G1 X44.709 Y146.566 E2.20330
G1 X44.709 Y33.494 E2.75035
M204 S1250
G1 X45.075 Y33.800 F7200.000
M204 S300
;TYPE:External perimeter
G1 F1500.000
G1 X134.925 Y33.800 E2.18552
G1 X134.925 Y146.200 E2.73402
G1 X45.075 Y146.200 E2.18552
G1 X45.075 Y33.860 E2.73256
M204 S1250
G1 X44.986 Y33.410 F7200.000
G1 X44.206 Y32.931
M204 S300
;TYPE:Perimeter
G1 F2100.000
G1 X135.794 Y32.931 E2.22778
M73 P2 R143
G1 X135.794 Y147.069 E2.77628
G1 X44.206 Y147.069 E2.22778
G1 X44.206 Y32.991 E2.77482
M204 S1250
G1 X43.841 Y32.566 F7200.000
M204 S300
G1 F2100.000
G1 X136.159 Y32.566 E2.24556
G1 X136.159 Y147.434 E2.79407
G1 X43.841 Y147.434 E2.24556
G1 X43.841 Y32.626 E2.79261
M204 S1250
G1 X43.475 Y32.200 F7200.000
M204 S300
;TYPE:External perimeter
G1 F1500.000
G1 X136.525 Y32.200 E2.26335
G1 X136.525 Y147.800 E2.81186
G1 X43.475 Y147.800 E2.26335
M73 P2 R142
G1 X43.475 Y32.260 E2.81040
M204 S1250
G1 X43.857 Y32.317 F7200.000
; stop printing object DaviCaseTampa.stl id:0 copy 0
M106 S170.85
;LAYER_CHANGE
;Z:0.52
;HEIGHT:0.16
;BEFORE_LAYER_CHANGE
G92 E0.0
;0.52


G1 E-2.24000 F4200.000
;WIPE_START
G1 F5760.000
G1 X44.792 Y32.259 E-0.91200
;WIPE_END
G1 E-0.04800 F4200.000
G1 Z0.560 F7200.000
;AFTER_LAYER_CHANGE
;0.52
G1 X41.031 Y31.215
G1 Z0.520
G1 E3.20000 F2400.000
;TYPE:Skirt
;WIDTH:0.42
G1 X41.409 Y30.527 E0.02014
G1 X41.781 Y30.151 E0.01355
G1 X42.229 Y29.865 E0.01365
G1 X42.727 Y29.687 E0.01355
G1 X43.251 Y29.623 E0.01355
G1 X136.729 Y29.623 E2.39812
G1 X137.631 Y29.802 E0.02360
G1 X138.395 Y30.308 E0.02350
G1 X138.910 Y31.065 E0.02350
G1 X139.102 Y31.961 E0.02350
G1 X139.102 Y148.011 E2.97721
G1 X138.969 Y148.785 E0.02014
G1 X138.591 Y149.473 E0.02014
G1 X138.216 Y149.851 E0.01365
G1 X137.767 Y150.136 E0.01365
G1 X137.262 Y150.316 E0.01375
G1 X136.734 Y150.377 E0.01365
G1 X43.264 Y150.377 E2.39792
G1 X42.490 Y150.244 E0.02014
G1 X41.802 Y149.866 E0.02014
G1 X41.424 Y149.491 E0.01365
G1 X41.139 Y149.042 E0.01365
G1 X40.959 Y148.537 E0.01375
G1 X40.898 Y148.009 E0.01365
G1 X40.898 Y31.989 E2.97643
G1 X41.021 Y31.274 E0.01860
; printing object DaviCaseTampa.stl id:0 copy 0
G1 E-2.24000 F4200.000
;WIPE_START
G1 F5760.000
G1 X41.409 Y30.527 E-0.58313
G1 X41.743 Y30.190 E-0.32887
;WIPE_END
G1 E-0.04800 F4200.000
G1 Z0.720 F7200.000
G1 X44.344 Y33.069
G1 Z0.520
G1 E3.20000 F2400.000
M204 S300
;TYPE:Perimeter
;WIDTH:0.4
G1 F2100.000
G1 X135.656 Y33.069 E2.22109
G1 X135.656 Y146.931 E2.76960
G1 X44.344 Y146.931 E2.22109
G1 X44.344 Y33.129 E2.76814
M204 S1250
G1 X44.709 Y33.434 F7200.000
M204 S300
G1 F2100.000
G1 X135.291 Y33.434 E2.20330
G1 X135.291 Y146.566 E2.75181
G1 X44.709 Y146.566 E2.20330
G1 X44.709 Y33.494 E2.75035
M204 S1250
G1 X45.075 Y33.800 F7200.000
M204 S300
;TYPE:External perimeter
G1 F1500.000
G1 X134.925 Y33.800 E2.18552
G1 X134.925 Y146.200 E2.73402
G1 X45.075 Y146.200 E2.18552
G1 X45.075 Y33.860 E2.73256
M204 S1250
M73 P3 R142
G1 X44.986 Y33.410 F7200.000
G1 X44.206 Y32.931
M204 S300
;TYPE:Perimeter
G1 F2100.000
G1 X135.794 Y32.931 E2.22778
G1 X135.794 Y147.069 E2.77628
M73 P3 R141
G1 X44.206 Y147.069 E2.22778
G1 X44.206 Y32.991 E2.77482
M204 S1250
G1 X43.841 Y32.566 F7200.000
M204 S300
G1 F2100.000
G1 X136.159 Y32.566 E2.24556
G1 X136.159 Y147.434 E2.79407
G1 X43.841 Y147.434 E2.24556
G1 X43.841 Y32.626 E2.79261
M204 S1250
G1 X43.475 Y32.200 F7200.000
M204 S300
;TYPE:External perimeter
G1 F1500.000
G1 X136.525 Y32.200 E2.26335
G1 X136.525 Y147.800 E2.81186
G1 X43.475 Y147.800 E2.26335
G1 X43.475 Y32.260 E2.81040
M204 S1250
G1 X43.857 Y32.317 F7200.000
; stop printing object DaviCaseTampa.stl id:0 copy 0
M106 S255
;LAYER_CHANGE
;Z:0.68
;HEIGHT:0.16
;BEFORE_LAYER_CHANGE
G92 E0.0
;0.68


G1 E-2.24000 F4200.000
;WIPE_START
G1 F5760.000
G1 X44.792 Y32.259 E-0.91200
;WIPE_END
G1 E-0.04800 F4200.000
G1 Z0.720 F7200.000
;AFTER_LAYER_CHANGE
;0.68
; printing object DaviCaseTampa.stl id:0 copy 0
G1 X44.344 Y33.069
G1 Z0.680
G1 E3.20000 F2400.000
M204 S300
;TYPE:Perimeter
G1 F2100.000
G1 X135.656 Y33.069 E2.22109
G1 X135.656 Y146.931 E2.76960
G1 X44.344 Y146.931 E2.22109
G1 X44.344 Y33.129 E2.76814
M204 S1250
G1 X44.709 Y33.434 F7200.000
M204 S300
G1 F2100.000
G1 X135.291 Y33.434 E2.20330
G1 X135.291 Y146.566 E2.75181
G1 X44.709 Y146.566 E2.20330
G1 X44.709 Y33.494 E2.75035
M204 S1250
M73 P3 R140
G1 X45.075 Y33.800 F7200.000
M204 S300
;TYPE:External perimeter
G1 F1500.000
G1 X134.925 Y33.800 E2.18552
G1 X134.925 Y146.200 E2.73402
G1 X45.075 Y146.200 E2.18552
G1 X45.075 Y33.860 E2.73256
M204 S1250
G1 X44.986 Y33.410 F7200.000
G1 X44.206 Y32.931
M204 S300
;TYPE:Perimeter
G1 F2100.000
G1 X135.794 Y32.931 E2.22778
G1 X135.794 Y147.069 E2.77628
M73 P4 R140
G1 X44.206 Y147.069 E2.22778
G1 X44.206 Y32.991 E2.77482
M204 S1250
G1 X43.841 Y32.566 F7200.000
M204 S300
G1 F2100.000
G1 X136.159 Y32.566 E2.24556
G1 X136.159 Y147.434 E2.79407
G1 X43.841 Y147.434 E2.24556
G1 X43.841 Y32.626 E2.79261
M204 S1250
G1 X43.475 Y32.200 F7200.000
M204 S300
;TYPE:External perimeter
G1 F1500.000
G1 X136.525 Y32.200 E2.26335
G1 X136.525 Y147.800 E2.81186
G1 X43.475 Y147.800 E2.26335
G1 X43.475 Y32.260 E2.81040
M204 S1250
G1 X43.857 Y32.317 F7200.000
; stop printing object DaviCaseTampa.stl id:0 copy 0
;LAYER_CHANGE
;Z:0.84
;HEIGHT:0.16
;BEFORE_LAYER_CHANGE
G92 E0.0
;0.84


G1 E-2.24000 F4200.000
;WIPE_START
G1 F5760.000
G1 X44.792 Y32.259 E-0.91200
;WIPE_END
G1 E-0.04800 F4200.000
G1 Z0.880 F7200.000
;AFTER_LAYER_CHANGE
;0.84
; printing object DaviCaseTampa.stl id:0 copy 0
G1 X44.344 Y33.069
G1 Z0.840
G1 E3.20000 F2400.000
M204 S300
;TYPE:Perimeter
G1 F2100.000
G1 X135.656 Y33.069 E2.22109
M73 P4 R139
G1 X135.656 Y146.931 E2.76960
G1 X44.344 Y146.931 E2.22109
G1 X44.344 Y33.129 E2.76814
M204 S1250
G1 X44.709 Y33.434 F7200.000
M204 S300
G1 F2100.000
G1 X135.291 Y33.434 E2.20330
G1 X135.291 Y146.566 E2.75181
G1 X44.709 Y146.566 E2.20330
G1 X44.709 Y33.494 E2.75035
M204 S1250
G1 X45.075 Y33.800 F7200.000
M204 S300
;TYPE:External perimeter
G1 F1500.000
G1 X134.925 Y33.800 E2.18552
G1 X134.925 Y146.200 E2.73402
G1 X45.075 Y146.200 E2.18552
G1 X45.075 Y33.860 E2.73256
M204 S1250
G1 X44.986 Y33.410 F7200.000
G1 X44.206 Y32.931
M204 S300
;TYPE:Perimeter
G1 F2100.000
G1 X135.794 Y32.931 E2.22778
G1 X135.794 Y147.069 E2.77628
G1 X44.206 Y147.069 E2.22778
G1 X44.206 Y32.991 E2.77482
M204 S1250
M73 P5 R139
G1 X43.841 Y32.566 F7200.000
M204 S300
G1 F2100.000
G1 X136.159 Y32.566 E2.24556
G1 X136.159 Y147.434 E2.79407
G1 X43.841 Y147.434 E2.24556
M73 P5 R138
G1 X43.841 Y32.626 E2.79261
M204 S1250
G1 X43.475 Y32.200 F7200.000
M204 S300
;TYPE:External perimeter
G1 F1500.000
G1 X136.525 Y32.200 E2.26335
G1 X136.525 Y147.800 E2.81186
G1 X43.475 Y147.800 E2.26335
G1 X43.475 Y32.260 E2.81040
M204 S1250
G1 X43.857 Y32.317 F7200.000
; stop printing object DaviCaseTampa.stl id:0 copy 0
;LAYER_CHANGE
;Z:1
;HEIGHT:0.16
;BEFORE_LAYER_CHANGE
G92 E0.0
;1


G1 E-2.24000 F4200.000
;WIPE_START
G1 F5760.000
G1 X44.792 Y32.259 E-0.91200
;WIPE_END
G1 E-0.04800 F4200.000
G1 Z1.040 F7200.000
;AFTER_LAYER_CHANGE
;1
; printing object DaviCaseTampa.stl id:0 copy 0
G1 X44.344 Y33.069
G1 Z1.000
G1 E3.20000 F2400.000
M204 S300
;TYPE:Perimeter
G1 F2100.000
G1 X135.656 Y33.069 E2.22109
G1 X135.656 Y146.931 E2.76960
G1 X44.344 Y146.931 E2.22109
G1 X44.344 Y33.129 E2.76814
M204 S1250
G1 X44.709 Y33.434 F7200.000
M204 S300
G1 F2100.000
G1 X135.291 Y33.434 E2.20330
G1 X135.291 Y146.566 E2.75181
G1 X44.709 Y146.566 E2.20330
G1 X44.709 Y33.494 E2.75035
M204 S1250
G1 X45.075 Y33.800 F7200.000
M204 S300
;TYPE:External perimeter
G1 F1500.000
G1 X134.925 Y33.800 E2.18552
G1 X134.925 Y146.200 E2.73402
G1 X45.075 Y146.200 E2.18552
G1 X45.075 Y33.860 E2.73256
M204 S1250
M73 P5 R137
G1 X44.986 Y33.410 F7200.000
G1 X44.206 Y32.931
M204 S300
;TYPE:Perimeter
G1 F2100.000
G1 X135.794 Y32.931 E2.22778
G1 X135.794 Y147.069 E2.77628
G1 X44.206 Y147.069 E2.22778
G1 X44.206 Y32.991 E2.77482
M204 S1250
G1 X43.841 Y32.566 F7200.000
M204 S300
G1 F2100.000
G1 X136.159 Y32.566 E2.24556
M73 P6 R137
G1 X136.159 Y147.434 E2.79407
G1 X43.841 Y147.434 E2.24556
G1 X43.841 Y32.626 E2.79261
M204 S1250
G1 X43.475 Y32.200 F7200.000
M204 S300
;TYPE:External perimeter
G1 F1500.000
G1 X136.525 Y32.200 E2.26335
G1 X136.525 Y147.800 E2.81186
G1 X43.475 Y147.800 E2.26335
G1 X43.475 Y32.260 E2.81040
M204 S1250
G1 X43.857 Y32.317 F7200.000
; stop printing object DaviCaseTampa.stl id:0 copy 0
;LAYER_CHANGE
;Z:1.16
;HEIGHT:0.16
;BEFORE_LAYER_CHANGE
G92 E0.0
;1.16


G1 E-2.24000 F4200.000
;WIPE_START
G1 F5760.000
G1 X44.792 Y32.259 E-0.91200
;WIPE_END
G1 E-0.04800 F4200.000
G1 Z1.200 F7200.000
;AFTER_LAYER_CHANGE
;1.16
; printing object DaviCaseTampa.stl id:0 copy 0
G1 X44.344 Y33.069
G1 Z1.160
G1 E3.20000 F2400.000
M204 S300
;TYPE:Perimeter
G1 F2100.000
G1 X135.656 Y33.069 E2.22109
G1 X135.656 Y146.931 E2.76960
G1 X44.344 Y146.931 E2.22109
G1 X44.344 Y33.129 E2.76814
M204 S1250
G1 X44.709 Y33.434 F7200.000
M204 S300
G1 F2100.000
G1 X135.291 Y33.434 E2.20330
G1 X135.291 Y146.566 E2.75181
M73 P6 R136
G1 X44.709 Y146.566 E2.20330
G1 X44.709 Y33.494 E2.75035
M204 S1250
G1 X45.075 Y33.800 F7200.000
M204 S300
;TYPE:External perimeter
G1 F1500.000
G1 X134.925 Y33.800 E2.18552
G1 X134.925 Y146.200 E2.73402
G1 X45.075 Y146.200 E2.18552
G1 X45.075 Y33.860 E2.73256
M204 S1250
G1 X44.986 Y33.410 F7200.000
G1 X44.206 Y32.931
M204 S300
;TYPE:Perimeter
G1 F2100.000
G1 X135.794 Y32.931 E2.22778
G1 X135.794 Y147.069 E2.77628
G1 X44.206 Y147.069 E2.22778
G1 X44.206 Y32.991 E2.77482
M204 S1250
G1 X43.841 Y32.566 F7200.000
M204 S300
G1 F2100.000
G1 X136.159 Y32.566 E2.24556
G1 X136.159 Y147.434 E2.79407
G1 X43.841 Y147.434 E2.24556
M73 P7 R136
G1 X43.841 Y32.626 E2.79261
M204 S1250
G1 X43.475 Y32.200 F7200.000
M204 S300
;TYPE:External perimeter
G1 F1500.000
G1 X136.525 Y32.200 E2.26335
G1 X136.525 Y147.800 E2.81186
G1 X43.475 Y147.800 E2.26335
M73 P7 R135
G1 X43.475 Y32.260 E2.81040
M204 S1250
G1 X43.857 Y32.317 F7200.000
; stop printing object DaviCaseTampa.stl id:0 copy 0
;LAYER_CHANGE
;Z:1.32
;HEIGHT:0.16
;BEFORE_LAYER_CHANGE
G92 E0.0
;1.32


G1 E-2.24000 F4200.000
;WIPE_START
G1 F5760.000
G1 X44.792 Y32.259 E-0.91200
;WIPE_END
G1 E-0.04800 F4200.000
G1 Z1.360 F7200.000
;AFTER_LAYER_CHANGE
;1.32
; printing object DaviCaseTampa.stl id:0 copy 0
G1 X44.344 Y33.069
G1 Z1.320
G1 E3.20000 F2400.000
M204 S300
;TYPE:Perimeter
G1 F2100.000
G1 X135.656 Y33.069 E2.22109
G1 X135.656 Y146.931 E2.76960
G1 X44.344 Y146.931 E2.22109
G1 X44.344 Y33.129 E2.76814
M204 S1250
G1 X44.709 Y33.434 F7200.000
M204 S300
G1 F2100.000
G1 X135.291 Y33.434 E2.20330
G1 X135.291 Y146.566 E2.75181
G1 X44.709 Y146.566 E2.20330
G1 X44.709 Y33.494 E2.75035
M204 S1250
G1 X45.075 Y33.800 F7200.000
M204 S300
;TYPE:External perimeter
G1 F1500.000
G1 X134.925 Y33.800 E2.18552
G1 X134.925 Y146.200 E2.73402
G1 X45.075 Y146.200 E2.18552
G1 X45.075 Y33.860 E2.73256
M204 S1250
G1 X44.986 Y33.410 F7200.000
G1 X44.206 Y32.931
M204 S300
