; generated by PrusaSlicer 2.3.3+linux-x64 on 2021-10-15 at 22:33:38 UTC


;
;

;
;
; 

; external perimeters extrusion width = 0.40mm
; perimeters extrusion width = 0.40mm
; infill extrusion width = 0.45mm
; solid infill extrusion width = 0.45mm
; top infill extrusion width = 0.40mm
; first layer extrusion width = 0.42mm

M73 P0 R221
M201 X1250 Y1250 Z400 E5000 ; sets maximum accelerations, mm/sec^2
M203 X180 Y180 Z12 E80 ; sets maximum feedrates, mm/sec
M204 P1250 R1250 T1250 ; sets acceleration (P, T) and retract acceleration (R), mm/sec^2
M205 X8.00 Y8.00 Z2.00 E10.00 ; sets the jerk limits, mm/sec
M205 S0 T0 ; sets the minimum extruding and travel feed rate, mm/sec
M107
;TYPE:Custom
G90 ; use absolute coordinates
M83 ; extruder relative mode
M104 S170 ; set extruder temp for bed leveling
M140 S105 ; set bed temp
M109 R170 ; wait for bed leveling temp
M190 S105 ; wait for bed temp
G28 ; home all without mesh bed level
G29 ; mesh bed leveling 
M104 S215 ; set extruder temp
G92 E0.0
G1 Y-2.0 X179 F2400
M73 P0 R220
G1 Z3 F720
M109 S215 ; wait for extruder temp

; intro line
G1 X170 F1000
G1 Z0.2 F720
G1 X110.0 E8.0 F900
G1 X40.0 E10.0 F700
G92 E0.0

M221 S95 ; set flow
G21 ; set units to millimeters
G90 ; use absolute coordinates
M83 ; use relative distances for extrusion
M900 K0.2 ; Filament gcode LA 1.5
; ; Filament gcode LA 1.0
;LAYER_CHANGE
;Z:0.2
;HEIGHT:0.2
;BEFORE_LAYER_CHANGE
G92 E0.0
;0.2


G1 E-3.20000 F4200.000
G1 Z0.200 F7200.000
;AFTER_LAYER_CHANGE
;0.2
G1 Z0.400
G1 X41.247 Y35.049
G1 Z0.200
G1 E3.20000 F2400.000
M204 S800
;TYPE:Skirt
;WIDTH:0.42
G1 F1200.000
G1 X41.618 Y34.366 E0.02437
G1 X41.989 Y33.985 E0.01669
G1 X42.437 Y33.697 E0.01668
G1 X42.941 Y33.515 E0.01680
G1 X43.469 Y33.450 E0.01668
G1 X130.947 Y33.450 E2.74280
G1 X131.849 Y33.629 E0.02884
G1 X132.612 Y34.135 E0.02872
G1 X133.128 Y34.892 E0.02872
G1 X133.320 Y35.788 E0.02872
G1 X133.320 Y145.838 E3.45056
G1 X133.189 Y146.604 E0.02437
G1 X132.818 Y147.288 E0.02437
G1 X132.443 Y147.671 E0.01680
G1 X131.992 Y147.960 E0.01680
G1 X131.487 Y148.141 E0.01680
G1 X130.955 Y148.204 E0.01680
G1 X43.481 Y148.204 E2.74268
G1 X42.715 Y148.073 E0.02437
G1 X42.032 Y147.702 E0.02437
G1 X41.647 Y147.324 E0.01692
G1 X41.358 Y146.873 E0.01680
G1 X41.178 Y146.368 E0.01680
G1 X41.116 Y145.835 E0.01680
G1 X41.116 Y35.815 E3.44960
G1 X41.236 Y35.108 E0.02249
M204 S1250
; printing object DaviCaseBase.stl id:0 copy 0
G1 E-2.24000 F4200.000
;WIPE_START
G1 F5760.000
G1 X41.618 Y34.366 E-0.57797
G1 X41.955 Y34.021 E-0.33403
;WIPE_END
G1 E-0.04800 F4200.000
G1 Z0.400 F7200.000
G1 X45.034 Y37.368
G1 Z0.200
G1 E3.20000 F2400.000
M204 S800
;TYPE:Perimeter
G1 F1200.000
G1 X129.402 Y37.368 E2.64528
G1 X129.402 Y144.286 E3.35232
G1 X45.034 Y144.286 E2.64528
G1 X45.034 Y37.428 E3.35044
M204 S1250
G1 X44.657 Y36.991 F7200.000
M204 S800
G1 F1200.000
G1 X129.779 Y36.991 E2.66893
G1 X129.779 Y144.663 E3.37597
M73 P0 R219
G1 X44.657 Y144.663 E2.66893
G1 X44.657 Y37.051 E3.37409
M204 S1250
G1 X44.280 Y36.614 F7200.000
M204 S800
G1 F1200.000
G1 X130.156 Y36.614 E2.69258
G1 X130.156 Y145.040 E3.39962
G1 X44.280 Y145.040 E2.69258
G1 X44.280 Y36.674 E3.39774
M204 S1250
G1 X43.903 Y36.237 F7200.000
M204 S800
;TYPE:External perimeter
G1 F1200.000
G1 X130.533 Y36.237 E2.71622
G1 X130.533 Y145.417 E3.42326
G1 X43.903 Y145.417 E2.71622
G1 X43.903 Y36.297 E3.42138
M204 S1250
G1 X44.285 Y36.355 F7200.000
G1 E-2.24000 F4200.000
;WIPE_START
G1 F5760.000
G1 X45.219 Y36.296 E-0.91200
;WIPE_END
G1 E-0.04800 F4200.000
G1 Z0.400 F7200.000
G1 X129.288 Y38.246
G1 Z0.200
G1 E3.20000 F2400.000
M204 S800
;TYPE:Solid infill
;WIDTH:0.421049
G1 F1200.000
G1 X128.694 Y37.651 E0.02645
G1 X128.159 Y37.651 E0.01681
G1 X129.119 Y38.611 E0.04268
G1 X129.119 Y39.145 E0.01681
G1 X127.624 Y37.651 E0.06646
G1 X127.089 Y37.651 E0.01681
G1 X129.119 Y39.680 E0.09024
G1 X129.119 Y40.215 E0.01681
G1 X126.555 Y37.651 E0.11401
G1 X126.020 Y37.651 E0.01681
G1 X129.119 Y40.750 E0.13779
G1 X129.119 Y41.284 E0.01681
G1 X125.485 Y37.651 E0.16157
G1 X124.950 Y37.651 E0.01681
G1 X129.119 Y41.819 E0.18535
G1 X129.119 Y42.354 E0.01681
G1 X124.416 Y37.651 E0.20913
G1 X123.881 Y37.651 E0.01681
G1 X129.119 Y42.889 E0.23290
G1 X129.119 Y43.423 E0.01681
G1 X123.346 Y37.651 E0.25668
G1 X122.811 Y37.651 E0.01681
G1 X129.119 Y43.958 E0.28046
G1 X129.119 Y44.493 E0.01681
G1 X122.277 Y37.651 E0.30424
G1 X121.742 Y37.651 E0.01681
G1 X129.119 Y45.028 E0.32802
G1 X129.119 Y45.562 E0.01681
G1 X121.207 Y37.651 E0.35179
M73 P0 R218
G1 X120.672 Y37.651 E0.01681
G1 X129.119 Y46.097 E0.37557
G1 X129.119 Y46.632 E0.01681
G1 X120.138 Y37.651 E0.39935
G1 X119.603 Y37.651 E0.01681
G1 X129.119 Y47.167 E0.42313
G1 X129.119 Y47.702 E0.01681
G1 X119.068 Y37.651 E0.44691
G1 X118.533 Y37.651 E0.01681
G1 X129.119 Y48.236 E0.47068
G1 X129.119 Y48.771 E0.01681
G1 X117.999 Y37.651 E0.49446
G1 X117.464 Y37.651 E0.01681
G1 X129.119 Y49.306 E0.51824
G1 X129.119 Y49.841 E0.01681
G1 X116.929 Y37.651 E0.54202
G1 X116.394 Y37.651 E0.01681
G1 X129.119 Y50.375 E0.56580
G1 X129.119 Y50.910 E0.01681
G1 X115.859 Y37.651 E0.58957
G1 X115.325 Y37.651 E0.01681
G1 X129.119 Y51.445 E0.61335
G1 X129.119 Y51.980 E0.01681
G1 X114.790 Y37.651 E0.63713
G1 X114.255 Y37.651 E0.01681
G1 X129.119 Y52.514 E0.66091
G1 X129.119 Y53.049 E0.01681
G1 X113.720 Y37.651 E0.68469
M73 P1 R218
G1 X113.186 Y37.651 E0.01681
G1 X129.119 Y53.584 E0.70846
G1 X129.119 Y54.119 E0.01681
G1 X112.651 Y37.651 E0.73224
G1 X112.116 Y37.651 E0.01681
G1 X129.119 Y54.653 E0.75602
G1 X129.119 Y55.188 E0.01681
G1 X111.581 Y37.651 E0.77980
G1 X111.047 Y37.651 E0.01681
G1 X129.119 Y55.723 E0.80357
G1 X129.119 Y56.258 E0.01681
G1 X110.512 Y37.651 E0.82735
G1 X109.977 Y37.651 E0.01681
G1 X129.119 Y56.792 E0.85113
G1 X129.119 Y57.327 E0.01681
G1 X109.442 Y37.651 E0.87491
G1 X108.908 Y37.651 E0.01681
G1 X129.119 Y57.862 E0.89869
G1 X129.119 Y58.397 E0.01681
G1 X108.373 Y37.651 E0.92246
G1 X107.838 Y37.651 E0.01681
G1 X129.119 Y58.931 E0.94624
G1 X129.119 Y59.466 E0.01681
G1 X107.303 Y37.651 E0.97002
G1 X106.769 Y37.651 E0.01681
G1 X129.119 Y60.001 E0.99380
G1 X129.119 Y60.536 E0.01681
G1 X106.234 Y37.651 E1.01758
G1 X105.699 Y37.651 E0.01681
G1 X129.119 Y61.070 E1.04135
G1 X129.119 Y61.605 E0.01681
G1 X105.164 Y37.651 E1.06513
G1 X104.630 Y37.651 E0.01681
G1 X129.119 Y62.140 E1.08891
G1 X129.119 Y62.675 E0.01681
G1 X104.095 Y37.651 E1.11269
G1 X103.560 Y37.651 E0.01681
G1 X129.119 Y63.209 E1.13647
G1 X129.119 Y63.744 E0.01681
G1 X103.025 Y37.651 E1.16024
G1 X102.491 Y37.651 E0.01681
G1 X129.119 Y64.279 E1.18402
G1 X129.119 Y64.814 E0.01681
G1 X101.956 Y37.651 E1.20780
G1 X101.421 Y37.651 E0.01681
G1 X129.119 Y65.348 E1.23158
G1 X129.119 Y65.883 E0.01681
G1 X100.886 Y37.651 E1.25536
G1 X100.352 Y37.651 E0.01681
G1 X129.119 Y66.418 E1.27913
G1 X129.119 Y66.953 E0.01681
G1 X99.817 Y37.651 E1.30291
G1 X99.282 Y37.651 E0.01681
G1 X129.119 Y67.487 E1.32669
G1 X129.119 Y68.022 E0.01681
G1 X98.747 Y37.651 E1.35047
G1 X98.213 Y37.651 E0.01681
G1 X129.119 Y68.557 E1.37425
M73 P1 R217
G1 X129.119 Y69.092 E0.01681
G1 X97.678 Y37.651 E1.39802
G1 X97.143 Y37.651 E0.01681
G1 X129.119 Y69.626 E1.42180
G1 X129.119 Y70.161 E0.01681
G1 X96.608 Y37.651 E1.44558
G1 X96.074 Y37.651 E0.01681
G1 X129.119 Y70.696 E1.46936
G1 X129.119 Y71.231 E0.01681
G1 X95.539 Y37.651 E1.49313
G1 X95.004 Y37.651 E0.01681
G1 X129.119 Y71.765 E1.51691
G1 X129.119 Y72.300 E0.01681
G1 X94.469 Y37.651 E1.54069
G1 X93.935 Y37.651 E0.01681
G1 X129.119 Y72.835 E1.56447
G1 X129.119 Y73.370 E0.01681
G1 X93.400 Y37.651 E1.58825
G1 X92.865 Y37.651 E0.01681
G1 X129.119 Y73.905 E1.61202
G1 X129.119 Y74.439 E0.01681
G1 X92.330 Y37.651 E1.63580
G1 X91.796 Y37.651 E0.01681
G1 X129.119 Y74.974 E1.65958
G1 X129.119 Y75.509 E0.01681
G1 X91.261 Y37.651 E1.68336
G1 X90.726 Y37.651 E0.01681
G1 X129.119 Y76.044 E1.70714
G1 X129.119 Y76.578 E0.01681
G1 X90.191 Y37.651 E1.73091
G1 X89.656 Y37.651 E0.01681
G1 X129.119 Y77.113 E1.75469
G1 X129.119 Y77.648 E0.01681
G1 X89.122 Y37.651 E1.77847
G1 X88.587 Y37.651 E0.01681
G1 X129.119 Y78.183 E1.80225
G1 X129.119 Y78.717 E0.01681
G1 X88.052 Y37.651 E1.82603
G1 X87.517 Y37.651 E0.01681
G1 X129.119 Y79.252 E1.84980
G1 X129.119 Y79.787 E0.01681
G1 X86.983 Y37.651 E1.87358
G1 X86.448 Y37.651 E0.01681
G1 X129.119 Y80.322 E1.89736
M73 P1 R216
G1 X129.119 Y80.856 E0.01681
G1 X85.913 Y37.651 E1.92114
G1 X85.378 Y37.651 E0.01681
G1 X129.119 Y81.391 E1.94492
G1 X129.119 Y81.926 E0.01681
G1 X84.844 Y37.651 E1.96869
G1 X84.309 Y37.651 E0.01681
G1 X129.119 Y82.461 E1.99247
G1 X129.119 Y82.995 E0.01681
G1 X83.774 Y37.651 E2.01625
G1 X83.239 Y37.651 E0.01681
G1 X129.119 Y83.530 E2.04003
G1 X129.119 Y84.065 E0.01681
G1 X82.705 Y37.651 E2.06381
G1 X82.170 Y37.651 E0.01681
G1 X129.119 Y84.600 E2.08758
M73 P2 R216
G1 X129.119 Y85.134 E0.01681
G1 X81.635 Y37.651 E2.11136
G1 X81.100 Y37.651 E0.01681
G1 X129.119 Y85.669 E2.13514
G1 X129.119 Y86.204 E0.01681
G1 X80.566 Y37.651 E2.15892
G1 X80.031 Y37.651 E0.01681
G1 X129.119 Y86.739 E2.18269
G1 X129.119 Y87.273 E0.01681
G1 X79.496 Y37.651 E2.20647
G1 X78.961 Y37.651 E0.01681
G1 X129.119 Y87.808 E2.23025
G1 X129.119 Y88.343 E0.01681
G1 X78.427 Y37.651 E2.25403
G1 X77.892 Y37.651 E0.01681
G1 X129.119 Y88.878 E2.27781
G1 X129.119 Y89.412 E0.01681
G1 X77.357 Y37.651 E2.30158
G1 X76.822 Y37.651 E0.01681
G1 X129.119 Y89.947 E2.32536
M73 P2 R215
G1 X129.119 Y90.482 E0.01681
G1 X76.288 Y37.651 E2.34914
G1 X75.753 Y37.651 E0.01681
G1 X129.119 Y91.017 E2.37292
G1 X129.119 Y91.551 E0.01681
G1 X75.218 Y37.651 E2.39670
G1 X74.683 Y37.651 E0.01681
G1 X129.119 Y92.086 E2.42047
G1 X129.119 Y92.621 E0.01681
G1 X74.149 Y37.651 E2.44425
G1 X73.614 Y37.651 E0.01681
G1 X129.119 Y93.156 E2.46803
G1 X129.119 Y93.690 E0.01681
G1 X73.079 Y37.651 E2.49181
G1 X72.544 Y37.651 E0.01681
G1 X129.119 Y94.225 E2.51559
G1 X129.119 Y94.760 E0.01681
G1 X72.010 Y37.651 E2.53936
G1 X71.475 Y37.651 E0.01681
G1 X129.119 Y95.295 E2.56314
G1 X129.119 Y95.829 E0.01681
G1 X70.940 Y37.651 E2.58692
G1 X70.405 Y37.651 E0.01681
G1 X129.119 Y96.364 E2.61070
G1 X129.119 Y96.899 E0.01681
G1 X69.871 Y37.651 E2.63448
G1 X69.336 Y37.651 E0.01681
G1 X129.119 Y97.434 E2.65825
G1 X129.119 Y97.968 E0.01681
G1 X68.801 Y37.651 E2.68203
M73 P2 R214
G1 X68.266 Y37.651 E0.01681
G1 X129.119 Y98.503 E2.70581
G1 X129.119 Y99.038 E0.01681
G1 X67.732 Y37.651 E2.72959
G1 X67.197 Y37.651 E0.01681
G1 X129.119 Y99.573 E2.75337
G1 X129.119 Y100.108 E0.01681
G1 X66.662 Y37.651 E2.77714
G1 X66.127 Y37.651 E0.01681
G1 X129.119 Y100.642 E2.80092
G1 X129.119 Y101.177 E0.01681
G1 X65.592 Y37.651 E2.82470
G1 X65.058 Y37.651 E0.01681
G1 X129.119 Y101.712 E2.84848
G1 X129.119 Y102.247 E0.01681
G1 X64.523 Y37.651 E2.87225
M73 P3 R214
G1 X63.988 Y37.651 E0.01681
G1 X129.119 Y102.781 E2.89603
G1 X129.119 Y103.316 E0.01681
G1 X63.453 Y37.651 E2.91981
G1 X62.919 Y37.651 E0.01681
G1 X129.119 Y103.851 E2.94359
G1 X129.119 Y104.386 E0.01681
G1 X62.384 Y37.651 E2.96737
G1 X61.849 Y37.651 E0.01681
G1 X129.119 Y104.920 E2.99114
M73 P3 R213
G1 X129.119 Y105.455 E0.01681
G1 X61.314 Y37.651 E3.01492
G1 X60.780 Y37.651 E0.01681
G1 X129.119 Y105.990 E3.03870
G1 X129.119 Y106.525 E0.01681
G1 X60.245 Y37.651 E3.06248
G1 X59.710 Y37.651 E0.01681
G1 X129.119 Y107.059 E3.08626
G1 X129.119 Y107.594 E0.01681
G1 X59.175 Y37.651 E3.11003
G1 X58.641 Y37.651 E0.01681
G1 X129.119 Y108.129 E3.13381
G1 X129.119 Y108.664 E0.01681
G1 X58.106 Y37.651 E3.15759
G1 X57.571 Y37.651 E0.01681
G1 X129.119 Y109.198 E3.18137
G1 X129.119 Y109.733 E0.01681
G1 X57.036 Y37.651 E3.20515
G1 X56.502 Y37.651 E0.01681
G1 X129.119 Y110.268 E3.22892
G1 X129.119 Y110.803 E0.01681
G1 X55.967 Y37.651 E3.25270
G1 X55.432 Y37.651 E0.01681
G1 X129.119 Y111.337 E3.27648
M73 P3 R212
G1 X129.119 Y111.872 E0.01681
G1 X54.897 Y37.651 E3.30026
G1 X54.363 Y37.651 E0.01681
G1 X129.119 Y112.407 E3.32404
G1 X129.119 Y112.942 E0.01681
G1 X53.828 Y37.651 E3.34781
G1 X53.293 Y37.651 E0.01681
G1 X129.119 Y113.476 E3.37159
G1 X129.119 Y114.011 E0.01681
G1 X52.758 Y37.651 E3.39537
G1 X52.224 Y37.651 E0.01681
G1 X129.119 Y114.546 E3.41915
G1 X129.119 Y115.081 E0.01681
G1 X51.689 Y37.651 E3.44293
G1 X51.154 Y37.651 E0.01681
G1 X129.119 Y115.615 E3.46670
G1 X129.119 Y116.150 E0.01681
G1 X50.619 Y37.651 E3.49048
M73 P4 R212
G1 X50.085 Y37.651 E0.01681
G1 X129.119 Y116.685 E3.51426
G1 X129.119 Y117.220 E0.01681
G1 X49.550 Y37.651 E3.53804
M73 P4 R211
G1 X49.015 Y37.651 E0.01681
G1 X129.119 Y117.754 E3.56181
G1 X129.119 Y118.289 E0.01681
G1 X48.480 Y37.651 E3.58559
G1 X47.946 Y37.651 E0.01681
G1 X129.119 Y118.824 E3.60937
G1 X129.119 Y119.359 E0.01681
G1 X47.411 Y37.651 E3.63315
G1 X46.876 Y37.651 E0.01681
G1 X129.119 Y119.893 E3.65693
G1 X129.119 Y120.428 E0.01681
G1 X46.341 Y37.651 E3.68070
G1 X45.807 Y37.651 E0.01681
G1 X129.119 Y120.963 E3.70448
G1 X129.119 Y121.498 E0.01681
G1 X45.317 Y37.696 E3.72626
G1 X45.317 Y38.231 E0.01681
G1 X129.119 Y122.032 E3.72626
G1 X129.119 Y122.567 E0.01681
G1 X45.317 Y38.765 E3.72626
M73 P4 R210
G1 X45.317 Y39.300 E0.01681
G1 X129.119 Y123.102 E3.72626
G1 X129.119 Y123.637 E0.01681
G1 X45.317 Y39.835 E3.72626
G1 X45.317 Y40.370 E0.01681
G1 X129.119 Y124.171 E3.72626
G1 X129.119 Y124.706 E0.01681
G1 X45.317 Y40.904 E3.72626
G1 X45.317 Y41.439 E0.01681
G1 X129.119 Y125.241 E3.72626
G1 X129.119 Y125.776 E0.01681
G1 X45.317 Y41.974 E3.72626
G1 X45.317 Y42.509 E0.01681
G1 X129.119 Y126.311 E3.72626
G1 X129.119 Y126.845 E0.01681
G1 X45.317 Y43.043 E3.72626
G1 X45.317 Y43.578 E0.01681
G1 X129.119 Y127.380 E3.72626
G1 X129.119 Y127.915 E0.01681
G1 X45.317 Y44.113 E3.72626
M73 P4 R209
G1 X45.317 Y44.648 E0.01681
M73 P5 R209
G1 X129.119 Y128.450 E3.72626
G1 X129.119 Y128.984 E0.01681
G1 X45.317 Y45.182 E3.72626
G1 X45.317 Y45.717 E0.01681
G1 X129.119 Y129.519 E3.72626
G1 X129.119 Y130.054 E0.01681
G1 X45.317 Y46.252 E3.72626
G1 X45.317 Y46.787 E0.01681
G1 X129.119 Y130.589 E3.72626
G1 X129.119 Y131.123 E0.01681
G1 X45.317 Y47.321 E3.72626
G1 X45.317 Y47.856 E0.01681
G1 X129.119 Y131.658 E3.72626
G1 X129.119 Y132.193 E0.01681
G1 X45.317 Y48.391 E3.72626
G1 X45.317 Y48.926 E0.01681
G1 X129.119 Y132.728 E3.72626
G1 X129.119 Y133.262 E0.01681
G1 X45.317 Y49.460 E3.72626
M73 P5 R208
G1 X45.317 Y49.995 E0.01681
G1 X129.119 Y133.797 E3.72626
G1 X129.119 Y134.332 E0.01681
G1 X45.317 Y50.530 E3.72626
G1 X45.317 Y51.065 E0.01681
G1 X129.119 Y134.867 E3.72626
G1 X129.119 Y135.401 E0.01681
G1 X45.317 Y51.599 E3.72626
G1 X45.317 Y52.134 E0.01681
G1 X129.119 Y135.936 E3.72626
G1 X129.119 Y136.471 E0.01681
G1 X45.317 Y52.669 E3.72626
G1 X45.317 Y53.204 E0.01681
G1 X129.119 Y137.006 E3.72626
G1 X129.119 Y137.540 E0.01681
G1 X45.317 Y53.738 E3.72626
G1 X45.317 Y54.273 E0.01681
G1 X129.119 Y138.075 E3.72626
G1 X129.119 Y138.610 E0.01681
G1 X45.317 Y54.808 E3.72626
M73 P5 R207
G1 X45.317 Y55.343 E0.01681
G1 X129.119 Y139.145 E3.72626
G1 X129.119 Y139.679 E0.01681
G1 X45.317 Y55.877 E3.72626
G1 X45.317 Y56.412 E0.01681
G1 X129.119 Y140.214 E3.72626
M73 P6 R207
G1 X129.119 Y140.749 E0.01681
G1 X45.317 Y56.947 E3.72626
G1 X45.317 Y57.482 E0.01681
G1 X129.119 Y141.284 E3.72626
G1 X129.119 Y141.818 E0.01681
G1 X45.317 Y58.016 E3.72626
G1 X45.317 Y58.551 E0.01681
G1 X129.119 Y142.353 E3.72626
G1 X129.119 Y142.888 E0.01681
G1 X45.317 Y59.086 E3.72626
G1 X45.317 Y59.621 E0.01681
G1 X129.119 Y143.423 E3.72626
G1 X129.119 Y143.957 E0.01681
G1 X45.317 Y60.155 E3.72626
G1 X45.317 Y60.690 E0.01681
G1 X128.629 Y144.003 E3.70450
M73 P6 R206
G1 X128.095 Y144.003 E0.01681
G1 X45.317 Y61.225 E3.68072
G1 X45.317 Y61.760 E0.01681
G1 X127.560 Y144.003 E3.65694
G1 X127.025 Y144.003 E0.01681
G1 X45.317 Y62.295 E3.63316
G1 X45.317 Y62.829 E0.01681
G1 X126.490 Y144.003 E3.60938
G1 X125.955 Y144.003 E0.01681
G1 X45.317 Y63.364 E3.58561
G1 X45.317 Y63.899 E0.01681
G1 X125.421 Y144.003 E3.56183
G1 X124.886 Y144.003 E0.01681
G1 X45.317 Y64.434 E3.53805
G1 X45.317 Y64.968 E0.01681
G1 X124.351 Y144.003 E3.51427
G1 X123.816 Y144.003 E0.01681
G1 X45.317 Y65.503 E3.49049
G1 X45.317 Y66.038 E0.01681
G1 X123.282 Y144.003 E3.46672
M73 P6 R205
G1 X122.747 Y144.003 E0.01681
